X: 5
T: Waterbed, The
C: Diarmaid Moynihan
Z: PJ Mediterranean
S: https://thesession.org/tunes/328#setting52037
R: reel
M: 4/4
L: 1/8
K: Ador
||:EAAE BcAG|EGDG EDE/F/G|AEGA c~A3|B/c/dec dcAG|
EAAE BcAG|EGDG EAB/c/d|ecdc AEGA|cAGE EDD2:||
||:e2de g~e3|B/c/dec dcAG|e2de g~a3|gedc AEGA|
e2de g~e3|B/c/dec dega|gaeg dEGA|cAGE EDD2:||

%-------------------- TUNE SEPARATOR --------------------%

